src/16/actions/call-stop.svg

<svg xmlns="http://www.w3.org/2000/svg" width="16" height="16" viewBox="0 0 16 16">
 <defs>
  <style id="current-color-scheme" type="text/css">
   .ColorScheme-Text { color:#565656; } .ColorScheme-Highlight { color:#5294e2; }
  </style>
 </defs>
 <path style="fill:currentColor" class="ColorScheme-Highlight" d="M 14.001953 1.9960938 C 7.3851531 1.9960938 2.0190531 7.3520437 2.0019531 13.964844 L 2.0019531 14.027344 C 2.0019531 14.569104 2.4366731 14.996094 2.9707031 14.996094 L 6.0019531 14.996094 C 6.5559631 14.996094 7.0019531 14.550104 7.0019531 13.996094 L 7.0019531 11.996094 C 7.0019531 11.442084 6.5559631 10.996094 6.0019531 10.996094 L 5.5332031 10.996094 C 6.4371031 8.4391937 8.4450531 6.4312238 11.001953 5.5273438 L 11.001953 5.9960938 C 11.001953 6.5500938 11.447953 6.9960938 12.001953 6.9960938 L 14.001953 6.9960938 C 14.555953 6.9960938 15.001953 6.5500938 15.001953 5.9960938 L 15.001953 2.9960938 C 15.001953 2.4420937 14.578033 1.9960938 14.033203 1.9960938 L 14.001953 1.9960938 z"/>
</svg>

<svg xmlns="http://www.w3.org/2000/svg" width="16" height="16"><defs><style id="current-color-scheme" type="text/css"></style></defs><path d="M14.002 1.996c-6.617 0-11.983 5.356-12 11.969v.062c0 .542.435.97.969.97h3.031c.554 0 1-.447 1-1v-2c0-.555-.446-1-1-1h-.469a8.967 8.967 0 0 1 5.469-5.47v.47c0 .553.446 1 1 1h2c.554 0 1-.447 1-1v-3c0-.555-.424-1-.969-1h-.031z" fill="currentColor" color="#5294e2"/></svg>
